X: 112
M: C
L: 1/16
K: D
(A3B/c/) | d4 (A3G) F4 d4 | (e2f2) (d2F2) E4 D4 |
E4 A4 | (B2c2) (d2e2) {d}c4 (B2A2) | e4 (f2^g2) af3 (e2d2) |
c4 (TB3A) A4 :: A4 | d4 (e2f2) B4 (g2f2) |
(e2d2) (c2B2) {B}^A6 F2 | G4 (F2E2) F4 (B3c) | Tc6 B2
b4 (a2f2) (e2d2) (B3c/d/) | (AF3) (E3D) D4 |]

